src/lib/icons/twitter-x.svg

<!--{
  "category": "Social"
}-->
<svg width="16" height="17" viewBox="0 0 16 17" fill="none" xmlns="http://www.w3.org/2000/svg">
  <path fill-rule="evenodd" clip-rule="evenodd" d="M9.3031 7.07483L9.30396 7.07654L15 15.1276H10.8138L7.00964 9.70325L7.00623 9.69812L2.24841 15.1318H1L6.46619 8.90515L6.47473 8.91711L1.02905 1.13354H5.22034L8.77588 6.27417L13.2927 1.13184H14.5078L9.3031 7.07483ZM7.19165 8.41553L7.19763 8.42493L7.72656 9.20081L11.2684 14.2526H13.309L8.5896 7.5824L8.5802 7.56958L8.57251 7.55762L8.0675 6.78857L4.76233 2.00854H2.70898L7.19165 8.41553Z" fill="black"/>
</svg>

<!--{
  "category": "Social"
}-->
<svg xmlns="http://www.w3.org/2000/svg" width="16" height="17" fill="none"><path fill="#000" fill-rule="evenodd" d="m9.303 7.075.001.002L15 15.127h-4.186L7.01 9.704l-.004-.005-4.758 5.434H1l5.466-6.227.009.012-5.446-7.783H5.22l3.556 5.14 4.517-5.142h1.215L9.303 7.075Zm-2.111 1.34.006.01.529.776 3.541 5.052h2.041l-4.72-6.67-.009-.013-.007-.012-.505-.77-3.306-4.78H2.71l4.483 6.408Z" clip-rule="evenodd"/></svg>
